X:1
T:TRANPOSING
T:Promenade
T:Composed by Alexander Gretchaninoff Transposed by James Hudson 
%%score 1 2 3 4
L:1/8
Q:1/4=94
M:2/2
K:Ab
V:1 treble transpose=-2 nm="B♭ Clarinet" snm="B♭ Cl."
V:2 treble transpose=-9 nm="Alto Saxophone" snm="A. Sax."
V:3 treble transpose=-14 nm="Tenor Saxophone" snm="T. Sax."
V:4 bass nm="Euphonium" snm="Euph."
V:1
[K:Bb]|:!f!"^Andantino" f2 g2 f2 e2 | d2 c2 B2 F2 | BB c2 d2 f2 | d2 c2 B4 | ff g2 f2 e2 | %5
 d2 c2 B2 F2 | BB c2 d2 f2 | d2 c2 B4 :|"^A"!f! g2 _g2 =g2 d2 | gg _g2 =g2 d2 |!mf! f2 c2 e2 B2 | %11
 c2 d2 A4 |"^B"!f! g2 _g2 =g2 d2 | gg _g2 =g2 d2 | g2 _g2 e2 B2 | gg _g2 e2 B2 | %16
!>(! e2 B2 d2 B2!>)! |!mf!!<(! c2 d2 d4!<)! |!ff! f2 g2 f2 e2 | d2 c2 B2 F2 | BB c2 d2 B2 | %21
 d2 e2 f4 | f2 g2 f2 e2 | d2 c2 B2 F2 | BB c2 d2 g2 |"_rit." f2 e2 !fermata!B4 |] %26
V:2
[K:F]|:!f! a2 b2 a2 g2 | f2 d2 c2 c2 | cc d2 f2 d2 | f2 g2 a4 | aa b2 a2 g2 | g2 e2 d2 d2 | %6
 cc e2 f2 g2 | f2 e2 c4 :|!f! a2 g2 a2 e2 | aa g2 a2 e2 |!mf! g2 d2 f2 c2 | d'2 d'2 _d'4 | %12
!f! a2 g2 a2 e2 | aa g2 a2 e2 | b2 a2 f2 c2 | bb a2 f2 c2 |!>(! f2 d2 f2 d2!>)! | %17
!mf!!<(! d2 d2 e4!<)! |!ff! a2 b2 a2 g2 | f2 d2 c2 c2 | cc d2 f2 d2 | f2 g2 a4 | a2 b2 a2 g2 | %23
 f2 d2 c2 c2 | cc d2 f2 b2 |"_rit." a2 g2 !fermata!c4 |] %26
V:3
[K:Bb]|:!f! b2 c'2 b2 g2 | f2 e2 d2 c2 | dd e2 f2 e2 | g2 f2 b4 | bb c'2 b2 g2 | f2 e2 d2 c2 | %6
 dd f2 f2 a2 | f2 e2 d4 :|!f! b2 a2 b2 ^f2 | bb a2 b2 _g2 |!mf! a2 e2 g2 d2 | e2 e2 d4 | %12
!f! b2 a2 b2 _g2 | bb a2 b2 _g2 | b2 _a2 g2 d2 | bb _a2 g2 d2 |!>(! g2 e2 g2 e2!>)! | %17
!mf!!<(! e2 e2 _g4!<)! |!ff! b2 c'2 b2 g2 | f2 e2 d2 c2 | dd e2 f2 e2 | g2 f2 b4 | b2 c'2 b2 g2 | %23
 f2 e2 d2 c2 | dd e2 f2 c'2 |"_rit." b2 g2 !fermata!d4 |] %26
V:4
|: z2!f! A,,6 | A,,8- | A,,2 A,,6 | A,,6 A,,2- | A,,8 | A,,6 A,,2- | A,,8 | A,,8 :| z2!f! C,6- | %9
 C,2 C,6 | z2!mf! B,,6- | B,,2 G,,2 C,4 | z2!f! C,6- | C,2 C,6 | z2 A,,6- | A,,2 A,,6 | %16
 z2!>(! B,,4 D,2-!>)! |!mf!!<(! D,2 G,,2 C,4!<)! | z2!ff! A,,6 | A,,8 | A,,2 A,,6 | A,,6 A,,2- | %22
 A,,8- | A,,2 A,,6- | A,,2 A,,6 |"_rit." !fermata!A,,8 |] %26

